X: 10011
T: Dew On The Grass, The
R: barndance
M: 4/4
K: Adorian
G|A2 AB c2 BA|G2 de d2 cB|AGAB cedc|B2 AG B3 E|
A2 AB c2 BG|Aaag a2 ga|bagb eaed|B2 AG A3:|
|:d|efga gega|gega ge e2|eaab agab|
agab aged|efge gaba|gega b4|
abaf geba|ged=f ed B2|ABcd eaed|B2 AG A3:|

